X: 4
T: The Road To Cashel
R: reel
M: 4/4
L: 1/8
K: Edor
FEED ~E3G | FE~E2 FABA | FEED ~E3 G | FDDc dABA :|!~B3d ef{a}fe|df~f2 afed|Bdge ~f3e|dBAF {G}FE{F}ED|!~B3d ef{a}fe|df ~f2 aefa|bf~f2 aefa|bfaf edBA|!


Tune 3270	Setting 16337

